Adwaita++-Dark/actions/16/call-start.svg

<svg height="16" width="16" xmlns="http://www.w3.org/2000/svg">
  <path d="m10 2c-.55 0-1 .446-1 1v2l1.52 1.521c-.7076 1.837-2.1559 3.2911-3.99 4.006l-1.53-1.527h-2c-.55 0-1 .446-1 1v3c0 .554.45 1 1 1h1c5.5228 0 10-4.4772 10-10v-1c0-.554-.45-1-1-1z" fill="#e6ddff"/>
</svg>

<svg xmlns="http://www.w3.org/2000/svg" width="16" height="16" version="1.1">
 <path style="fill:#E6DDFF" d="M 10,2 C 9.45,2 9,2.446 9,3 V 5 L 10.52,6.521 C 9.8124,8.358 8.3641,9.8121 6.53,10.527 L 5,9 H 3 C 2.45,9 2,9.446 2,10 V 13 C 2,13.554 2.45,14 3,14 H 4 C 9.5228,14 14,9.5228 14,4 V 3 C 14,2.446 13.55,2 13,2 Z"/>
</svg>
